X: 15636
T: Godmother, The
R: reel
M: 4/4
K: Emajor
|:eBB/B/B geef|edeB Acea|geBG Acec|Bdd/d/d efab|
geef geef|edeB Acec|Bcde fBB/B/B|1 fBgB agfg:|2 fBgB agfe||
|:c2ce defd|e2ef gage|c2ce dcBA|GEBG eBge|
c2ce def2|geef gbag|fede fBB/B/B|1 fBgB agfe:|2 fBgB agfg||

